!!!!SEGMENT: pl-sa--3-a-i-3--001_binder-christlieb-siegmund--missa-ex-c-kyrie.krn
!!!cenid: 17xx:587
!!!COM: Binder, Christlieb Siegmund
!!!COM-rismid: pe356579
!!!CDT: 1723-1789
!!!CNT: German
!!!OTL: Missa ex C – Kyrie
!!!PDT: 1814
!!!AGN: Sacred; Mass
!!!SMS-siglum: PL-SA
!!!SMS-shelfmark: 3/A I 3
!!!SMS-shelfwork: 001-001 M
!!!SMS-variant:
!!!SMS-altvar:
!!!NIFC-rismid: 1001036472
!!!URL-scan: http://bc.bdsandomierz.pl/dlibra/publication/1271/edition/1239/content
!!!ONB-nifc: UWAGA: części Mszy: Kyrie, Gloria, Credo, Sanctus, Benedictus, Agnus Dei
**kern	**fba	**dynam	**kern	**dynam	**kern	**dynam	**kern	**text	**kern	**text	**kern	**text
*part6	*part6	*part6	*part5	*part5	*part4	*part4	*part3	*part3	*part2	*part2	*part1	*part1
*staff6	*	*	*staff5	*	*staff4	*	*staff3	*staff3	*staff2	*staff2	*staff1	*staff1
*I"Organo.	*	*	*I"Violino 2do.	*	*I"Violino Primo	*	*I"Tenore	*	*I"Alto.	*	*I"Canto.	*
*I'org	*	*	*I'vl 2	*	*I'vl 1	*	*I'T	*	*I'A	*	*I'S	*
*group3	*	*	*group2	*	*group2	*	*group1	*	*group1	*	*group1	*
*clefF4	*	*	*clefG2	*	*clefG2	*	*clefC4	*	*clefC3	*	*clefC1	*
*k[]	*	*	*k[]	*	*k[]	*	*k[]	*	*k[]	*	*k[]	*
*M3/4	*	*	*M3/4	*	*M3/4	*	*M3/4	*	*M3/4	*	*M3/4	*
=1	=1	=1	=1	=1	=1	=1	=1	=1	=1	=1	=1	=1
*2\right	*	*	*2\right	*	*2\right	*	*2\right	*	*2\right	*	*2\right	*
!LO:TX:b:t=Kyrie	!	!	!LO:TX:b:t=Kyrie	!	!LO:TX:b:t=Kyrie=	!	!LO:TX:a:t=21.	!	!LO:TX:a:t=16.	!	!LO:TX:a:t=Largo.	!
!LO:TX:a:t=Largo.	!	!	!LO:TX:a:t=Largo	!	!LO:TX:a:t=Largo	!	!LO:TX:a:t=Largo.	!	!LO:TX:a:t=Largo.	!	!LO:TX:a:t=16.	!
!LO:TX:a:t=P:problem: 3 z kropką w basie cyfrowanym	!	!	!	!	!	!	!LO:N:vis=00	!	!LO:N:vis=00	!	!LO:N:vis=00	!
8r	5_ 3__	.	2e/	.	2g/	.	0.r	.	0.r	.	0.r	.
8C/L	.	.	.	.	.	.	.	.	.	.	.	.
8D/	.	.	.	.	.	.	.	.	.	.	.	.
8E/	.	.	.	.	.	.	.	.	.	.	.	.
8D/	.	.	4c/	.	4e/	.	.	.	.	.	.	.
8C/J	.	.	.	.	.	.	.	.	.	.	.	.
=2	=2	=2	=2	=2	=2	=2	=2	=2	=2	=2	=2	=2
8r	x	.	8c/L	.	8e/L	.	.	.	.	.	.	.
8BB/L	5_	.	8d/J	.	8f/J	.	.	.	.	.	.	.
8BB/	.	.	4.d/	.	4.f/	.	.	.	.	.	.	.
8BB/	.	.	.	.	.	.	.	.	.	.	.	.
8BB/	.	.	.	.	.	.	.	.	.	.	.	.
8C/J	3	.	8c/	.	8e/	.	.	.	.	.	.	.
=3	=3	=3	=3	=3	=3	=3	=3	=3	=3	=3	=3	=3
8r	5_ 3_	.	8f/L	.	8a/L	.	.	.	.	.	.	.
8c\	.	.	(8e/J	.	(8g/J	.	.	.	.	.	.	.
4c\	.	.	4.e/)	.	4.g/)	.	.	.	.	.	.	.
4C/	.	.	.	.	.	.	.	.	.	.	.	.
.	.	.	8c/	.	8e/	.	.	.	.	.	.	.
=4	=4	=4	=4	=4	=4	=4	=4	=4	=4	=4	=4	=4
8r	x	.	8e/L	.	8g/L	.	.	.	.	.	.	.
8G\	7_	.	(8d/J	.	8f/J	.	.	.	.	.	.	.
!LO:TX:a:t=P:problem: 3 z kropką w basie cyfrowanym	!	!	!	!	!	!	!	!	!	!	!	!
4G\	5 3	.	4.d/)	.	4.f/	.	.	.	.	.	.	.
4GG/	.	.	.	.	.	.	.	.	.	.	.	.
.	.	.	8B/	.	8d/	.	.	.	.	.	.	.
=5	=5	=5	=5	=5	=5	=5	=5	=5	=5	=5	=5	=5
!	!	!	!	!	!	!	!LO:N:vis=00	!	!LO:N:vis=00	!	!LO:N:vis=00	!
4GG/	7 5	.	8d/L	.	(8f/L	.	0.r	.	0.r	.	0.r	.
.	.	.	(8c/J	.	8e/J)	.	.	.	.	.	.	.
4C/	6 4	.	4c/)	.	4e/	.	.	.	.	.	.	.
.	3	.	.	.	.	.	.	.	.	.	.	.
4r	.	.	4r	.	4r	.	.	.	.	.	.	.
=6	=6	=6	=6	=6	=6	=6	=6	=6	=6	=6	=6	=6
*tremolo	*	*	*	*	*	*	*	*	*	*	*	*
!	!	!	!	!LO:DY:a:t=for.	!	!LO:DY:b:t=for.	!	!	!	!	!	!
8C/L	9	.	16G/LL	f	16g/LL	f	.	.	.	.	.	.
.	.	.	16c/	.	16cc/	.	.	.	.	.	.	.
8C/	.	.	16B/	.	16b/	.	.	.	.	.	.	.
.	.	.	16c/JJ	.	16cc/JJ	.	.	.	.	.	.	.
8C/	.	.	16d/LL	.	16dd\LL	.	.	.	.	.	.	.
.	.	.	16c/	.	16cc\	.	.	.	.	.	.	.
8C/J	.	.	16B/	.	16b\	.	.	.	.	.	.	.
.	.	.	16c/JJ	.	16cc\JJ	.	.	.	.	.	.	.
*Xtremolo	*	*	*	*	*	*	*	*	*	*	*	*
8C/L	6	.	16G/LL	.	16g/LL	.	.	.	.	.	.	.
.	.	.	16A/	.	16a/	.	.	.	.	.	.	.
8C/J	7	.	16B-X/	.	16b-X/	.	.	.	.	.	.	.
.	.	.	16G/JJ	.	16g/JJ	.	.	.	.	.	.	.
=7	=7	=7	=7	=7	=7	=7	=7	=7	=7	=7	=7	=7
*tremolo	*	*	*	*	*	*	*	*	*	*	*	*
8C/L	6 4	.	16A/LL	.	16a\LL	.	.	.	.	.	.	.
.	.	.	16f/	.	16ff\	.	.	.	.	.	.	.
8C/	.	.	16e/	.	16ee\	.	.	.	.	.	.	.
.	.	.	16f/JJ	.	16ff\JJ	.	.	.	.	.	.	.
8C/	.	.	8c/L	.	8cc/L	.	.	.	.	.	.	.
8C/J	.	.	8A/	.	8a/	.	.	.	.	.	.	.
*Xtremolo	*	*	*	*	*	*	*	*	*	*	*	*
8C/L	5 3	.	8c/	.	8g/	.	.	.	.	.	.	.
8C/J	6 4	.	8A/J	.	8f/J	.	.	.	.	.	.	.
!	!	!	!LO:LB:g=original	!	!LO:LB:g=original	!	!	!	!	!	!	!
=8	=8	=8	=8	=8	=8	=8	=8	=8	=8	=8	=8	=8
*tremolo	*	*	*	*	*	*	*	*	*	*	*	*
8D\L	9 4	.	16A/LL	.	16a\LL	.	.	.	.	.	.	.
.	.	.	16d/	.	16dd\	.	.	.	.	.	.	.
8D\	.	.	16c#X/	.	16cc#X\	.	.	.	.	.	.	.
.	.	.	16d/JJ	.	16dd\JJ	.	.	.	.	.	.	.
8D\	.	.	16e/LL	.	16ee\LL	.	.	.	.	.	.	.
.	.	.	16d/	.	16dd\	.	.	.	.	.	.	.
8D\J	.	.	16c#X/	.	16cc#X\	.	.	.	.	.	.	.
.	.	.	16d/JJ	.	16dd\JJ	.	.	.	.	.	.	.
*Xtremolo	*	*	*	*	*	*	*	*	*	*	*	*
8D\L	4	.	16A/LL	.	16a\LL	.	.	.	.	.	.	.
.	.	.	16cn/	.	16ccn\	.	.	.	.	.	.	.
8D\J	7	.	16B/	.	16b\	.	.	.	.	.	.	.
.	.	.	16c/JJ	.	16cc\JJ	.	.	.	.	.	.	.
=9	=9	=9	=9	=9	=9	=9	=9	=9	=9	=9	=9	=9
*tremolo	*	*	*	*	*	*	*	*	*	*	*	*
!	!	!	!	!	!	!	!LO:N:vis=00	!	!LO:N:vis=00	!	!LO:N:vis=00	!
8D\L	6 4	.	16B/LL	.	16b\LL	.	0.r	.	0.r	.	0.r	.
.	.	.	16g/	.	16gg\	.	.	.	.	.	.	.
8D\	.	.	16f#X/	.	16ff#X\	.	.	.	.	.	.	.
.	.	.	16g/JJ	.	16gg\JJ	.	.	.	.	.	.	.
8D\	.	.	16d/LL	.	16dd\LL	.	.	.	.	.	.	.
.	.	.	16d/J	.	16dd\J	.	.	.	.	.	.	.
8D\J	.	.	8B/J	.	8b\J	.	.	.	.	.	.	.
*Xtremolo	*	*	*	*	*	*	*	*	*	*	*	*
8D\L	5 4|	.	8d/L	.	8a/L	.	.	.	.	.	.	.
8D\J	6 4	.	8B/J	.	8g/J	.	.	.	.	.	.	.
=10	=10	=10	=10	=10	=10	=10	=10	=10	=10	=10	=10	=10
*tremolo	*	*	*	*	*	*	*	*	*	*	*	*
!	!	!	!	!	!LO:TX:a:t=P:problem:mixed beam	!	!	!	!	!	!	!
8G\L	9	.	16G/LL	.	16g/LL	.	.	.	.	.	.	.
.	.	.	16g/	.	16gg\	.	.	.	.	.	.	.
8G\	.	.	16f#X/	.	16ff#X\	.	.	.	.	.	.	.
.	.	.	16g/JJ	.	16gg\JJ	.	.	.	.	.	.	.
8G\	.	.	16a/LL	.	16aa\LL	.	.	.	.	.	.	.
.	.	.	16g/	.	16gg\	.	.	.	.	.	.	.
8G\J	.	.	16f#X/	.	16ff#X\	.	.	.	.	.	.	.
.	.	.	16g/JJ	.	16gg\JJ	.	.	.	.	.	.	.
*Xtremolo	*	*	*	*	*	*	*	*	*	*	*	*
8G\L	4	.	16d/LL	.	16dd\LL	.	.	.	.	.	.	.
.	.	.	16e/	.	16ee\	.	.	.	.	.	.	.
8G\J	7	.	16fn/	.	16ffn\	.	.	.	.	.	.	.
.	.	.	16d/JJ	.	16dd\JJ	.	.	.	.	.	.	.
!LO:LB:g=original	!	!	!	!	!	!	!	!	!	!	!	!
=11	=11	=11	=11	=11	=11	=11	=11	=11	=11	=11	=11	=11
*tremolo	*	*	*	*	*	*	*	*	*	*	*	*
!LO:TX:a:t=P:problem: 4 z kropką w basie cyfrowanym	!	!	!	!	!	!	!	!	!	!	!	!
8G\L	6 4	.	16e/LL	.	16ee\LL	.	.	.	.	.	.	.
.	.	.	16cc/	.	16ccc\	.	.	.	.	.	.	.
8G\	.	.	16b/	.	16bb\	.	.	.	.	.	.	.
.	.	.	16cc/JJ	.	16ccc\JJ	.	.	.	.	.	.	.
8G\	.	.	16g/LL	.	16gg\LL	.	.	.	.	.	.	.
.	.	.	16g/	.	16gg\	.	.	.	.	.	.	.
8G\J	.	.	16e/	.	16ee\	.	.	.	.	.	.	.
.	.	.	16e/JJ	.	16ee\JJ	.	.	.	.	.	.	.
*Xtremolo	*	*	*	*	*	*	*	*	*	*	*	*
8G\L	5 3	.	8g/L	.	8dd\L	.	.	.	.	.	.	.
8c\J	3	.	8e/J	.	8cc\J	.	.	.	.	.	.	.
=12	=12	=12	=12	=12	=12	=12	=12	=12	=12	=12	=12	=12
4c\	6 4	.	4ff\	.	4aa\	.	.	.	.	.	.	.
4C/	5 3	.	8ee\L	.	8gg\L	.	.	.	.	.	.	.
.	.	.	8ee\	.	8ccc\	.	.	.	.	.	.	.
4r	.	.	8cc\	.	8ee\	.	.	.	.	.	.	.
.	.	.	8ee\J	.	8gg\J	.	.	.	.	.	.	.
!	!	!	!LO:LB:g=original	!	!	!	!	!	!	!	!	!
=13	=13	=13	=13	=13	=13	=13	=13	=13	=13	=13	=13	=13
!	!	!	!	!	!	!	!LO:N:vis=00	!	!LO:N:vis=00	!	!LO:N:vis=00	!
4BB/	5 3	.	4dd\	.	4ff\	.	0.r	.	0.r	.	0.r	.
!LO:TX:a:t=P:problem: 3 z kropką w basie cyfrowanym	!	!	!LO:TX:a:t=P:problem:mixed beam	!	!LO:TX:a:t=P:problem:mixed beam	!	!	!	!	!	!	!
4C/	3	.	8cc\L	.	8ee\L	.	.	.	.	.	.	.
!	!	!	!	!LO:DY:b:t=p.	!	!LO:DY:b:t=fo.	!	!	!	!	!	!
.	.	.	8e/	p	8g/	f	.	.	.	.	.	.
4r	.	.	8e/	.	8g/	.	.	.	.	.	.	.
.	.	.	8e/J	.	8g/J	.	.	.	.	.	.	.
!	!	!	!	!	!LO:LB:g=original	!	!	!	!	!	!	!
=14	=14	=14	=14	=14	=14	=14	=14	=14	=14	=14	=14	=14
!LO:TX:a:t=P:problem: 4 z kropką w basie cyfrowanym	!	!	!	!	!	!	!	!	!	!	!	!
4c\	6 4	.	4f/	.	4a/	.	.	.	.	.	.	.
4C/	5 3	.	8e/L	.	8g/L	.	.	.	.	.	.	.
.	.	.	8e/	.	8cc/	.	.	.	.	.	.	.
4r	.	.	8c/	.	8e/	.	.	.	.	.	.	.
.	.	.	8e/J	.	8g/J	.	.	.	.	.	.	.
=15	=15	=15	=15	=15	=15	=15	=15	=15	=15	=15	=15	=15
4BB/	5	.	4B/ 4d	.	4G/ 4f	.	.	.	.	.	.	.
!LO:TX:a:t=P:problem: 3 z kropką w basie cyfrowanym	!	!	!	!	!LO:TX:a:t=P:problem:mixed beam	!	!	!	!	!	!	!
4C/	3	.	8c/L	.	8e/L	.	.	.	.	.	.	.
.	.	.	8g/J	.	8gg\J	.	.	.	.	.	.	.
!LO:TX:a:t=P:problem:dwie nadliczbowe ósemki (8E 8E)	!	!	!	!	!	!LO:DY:b:t=for.	!	!	!	!	!	!
!LO:N:vis=4	!	!	!	!	!	!	!	!	!	!	!	!
8r	.	.	16a/LL	.	16ff\LL	f	.	.	.	.	.	.
.	.	.	16g/	.	16ee\	.	.	.	.	.	.	.
!LO:N:vis=8	!	!	!	!	!	!	!	!	!	!	!	!
16E\L	.	.	16f/	.	16dd\	.	.	.	.	.	.	.
!LO:N:vis=8	!	!	!	!	!	!	!	!	!	!	!	!
16E\J	.	.	16e/JJ	.	16cc\JJ	.	.	.	.	.	.	.
=16	=16	=16	=16	=16	=16	=16	=16	=16	=16	=16	=16	=16
!LO:TX:a:t=P:problem: 4 z kropką w basie cyfrowanym	!	!	!	!	!	!	!	!	!	!	!	!
4G\	6 4	.	8e/L	.	(8cc\L	.	.	.	.	.	.	.
.	.	.	8d/J	.	8b\J)	.	.	.	.	.	.	.
!LO:TX:a:t=P:problem:mixed beam	!	!	!	!	!	!	!	!	!	!	!	!
8GG/L	5 3	.	4d/	.	4b`\	.	.	.	.	.	.	.
8F\	3	.	.	.	.	.	.	.	.	.	.	.
8E\	3	.	4r	.	4r	.	.	.	.	.	.	.
8D\J	3	.	.	.	.	.	.	.	.	.	.	.
=17	=17	=17	=17	=17	=17	=17	=17	=17	=17	=17	=17	=17
!	!	!	!	!LO:DY:b:t=p.	!LO:TX:a:t=P:problem:p=p. (przekreślona laska)	!LO:DY:b:t=p.	!LO:N:vis=00	!	!	!	!	!
8r	.	.	2g/	p	2gg\	p	0.r	.	2g\	Ky-	2ee\	Ky-
!LO:TX:a:t=P:problem: 3 z kropką w basie cyfrowanym	!	!	!	!	!	!	!	!	!	!	!	!
8C\L	5_ 3_	.	.	.	.	.	.	.	.	.	.	.
8D\	.	.	.	.	.	.	.	.	.	.	.	.
8E\	.	.	.	.	.	.	.	.	.	.	.	.
8D\	.	.	4e/	.	4ee\	.	.	.	4e\	-ri-	4cc\	-ri-
8C\J	.	.	.	.	.	.	.	.	.	.	.	.
=18	=18	=18	=18	=18	=18	=18	=18	=18	=18	=18	=18	=18
8r	.	.	8e/L	.	(8ee\L	.	.	.	8e\L	-e-	8cc\L	-e-
8BB/L	5_	.	8f/J	.	8ff\J	.	.	.	8f\J	.	8dd\J	.
8BB/	.	.	(4.f/	.	4.ff\)	.	.	.	4.f\	.	4.dd\	.
8BB/	.	.	.	.	.	.	.	.	.	.	.	.
8BB/	.	.	.	.	.	.	.	.	.	.	.	.
!LO:TX:a:t=P:problem: 3 z kropką w basie cyfrowanym	!	!	!	!	!	!	!	!	!	!	!	!
8C/J	3	.	8e/)	.	8ee\	.	.	.	8e\	.	8cc\	.
=19	=19	=19	=19	=19	=19	=19	=19	=19	=19	=19	=19	=19
8r	.	.	8a/L	.	(8aa\L	.	.	.	8a\L	.	8ff\L	.
8c\	5_ 3_	.	(8g/J	.	8gg\J	.	.	.	8g\J	.	8ee\J	.
4c\	.	.	4.g/)	.	4.gg\)	.	.	.	4.g\	.	4.ee\	.
4C/	.	.	.	.	.	.	.	.	.	.	.	.
.	.	.	8e/	.	8ee\	.	.	.	8e\	.	8cc\	.
=20	=20	=20	=20	=20	=20	=20	=20	=20	=20	=20	=20	=20
8r	7_	.	8g/L	.	8gg\L	.	.	.	8e\L	.	8cc\L	.
8G\	.	.	(8f/J	.	8ff\J	.	.	.	8d\J	.	8b\J	.
4G\	.	.	4.f/)	.	4.ff\	.	.	.	4.d\	.	4.b\	.
4GG/	.	.	.	.	.	.	.	.	.	.	.	.
.	x	.	8d/	.	8dd\	.	.	.	8f\	.	8dd\	.
!LO:LB:g=original	!	!	!	!	!	!	!	!	!	!	!	!
=21	=21	=21	=21	=21	=21	=21	=21	=21	=21	=21	=21	=21
4GG/	9 7 5	.	8d/L	.	8ff\L	.	2.r	.	8f\L	-lei-	8dd\L	-ley-
.	.	.	8c/J	.	8ee\J	.	.	.	8e\J	.	8cc\J	.
4C/	5 3	.	4c/	.	4ee\	.	.	.	4e\	-son	4cc\	-son
4r	3	.	4r	.	4r	.	.	.	4r	.	4r	.
!	!	!	!LO:LB:g=original	!	!	!	!	!	!	!	!	!
=22	=22	=22	=22	=22	=22	=22	=22	=22	=22	=22	=22	=22
*tremolo	*	*	*	*	*	*	*	*	*	*	*	*
!LO:TX:a:t=Tutti.	!	!	!	!	!LO:TX:a:t=Tutti.	!	!	!	!	!	!LO:TX:a:t=P:problem:takt nadpisany nad pięciolinią	!
8C/L	9 3	.	16G/LL	.	16g\LL	.	4.G/	Ky-	4.e\	Ky-	4.cc\	.
.	.	.	16c/	.	16cc\	.	.	.	.	.	.	.
8C/	.	.	16B/	.	16b\	.	.	.	.	.	.	.
.	.	.	16c/JJ	.	16cc\JJ	.	.	.	.	.	.	.
8C/	.	.	16d/LL	.	16dd\LL	.	.	.	.	.	.	.
.	.	.	16c/	.	16cc\	.	.	.	.	.	.	.
8C/J	.	.	16B/	.	16b\	.	8G/	-ri-	8e\	-ri-	8cc\	.
.	.	.	16c/JJ	.	16cc\JJ	.	.	.	.	.	.	.
*Xtremolo	*	*	*	*	*	*	*	*	*	*	*	*
8C/L	6	.	16G/LL	.	16g/LL	.	8G/	-e-	8e\L	-e-	8cc\L	.
.	7	.	16A/	.	16a/	.	.	.	.	.	.	.
8C/J	.	.	16B-X/	.	16b-X/	.	8G/	.	8g\J	.	8b-X\J	.
.	.	.	16G/JJ	.	16g/JJ	.	.	.	.	.	.	.
!	!	!	!	!	!LO:LB:g=original	!	!	!	!LO:LB:g=original	!	!	!
=23	=23	=23	=23	=23	=23	=23	=23	=23	=23	=23	=23	=23
*tremolo	*	*	*	*	*	*	*	*	*	*	*	*
8C/L	6 4	.	16A/LL	.	16a\LL	.	4c\	-ley-	4f\	-lei-	4a\	ley-
.	.	.	16f/	.	16ff\	.	.	.	.	.	.	.
8C/	.	.	16e/	.	16ee\	.	.	.	.	.	.	.
.	.	.	16f/JJ	.	16ff\JJ	.	.	.	.	.	.	.
8C/	.	.	8c/L	.	8cc/L	.	8c\	-son	8f\	-son	8a\	-son
8C/J	.	.	8A/	.	8a/	.	8c\	e-	8a\	e-	8ff\	.
*Xtremolo	*	*	*	*	*	*	*	*	*	*	*	*
8C/L	5 3	.	8c/	.	8g/	.	8c\	-lei-	8g\	-lei-	8ee\	ley-
8C/J	5 3	.	8A/J	.	8f/J	.	8c\	-son	8a\	-son	8ff\	-son
!	!	!	!	!	!	!	!	!	!	!	!LO:LB:g=original	!
=24	=24	=24	=24	=24	=24	=24	=24	=24	=24	=24	=24	=24
*tremolo	*	*	*	*	*	*	*	*	*	*	*	*
8D\L	9 #	.	16A/LL	.	16a\LL	.	4.A/	Ky-	4.f#X\	Ky-	4.dd\	Ky-
.	.	.	16d/	.	16dd\	.	.	.	.	.	.	.
8D\	.	.	16c#X/	.	16cc#X\	.	.	.	.	.	.	.
.	.	.	16d/JJ	.	16dd\JJ	.	.	.	.	.	.	.
8D\	.	.	16e/LL	.	16ee\LL	.	.	.	.	.	.	.
.	.	.	16d/	.	16dd\	.	.	.	.	.	.	.
8D\J	.	.	16c#X/	.	16cc#X\	.	8A/	-ri-	8f#\	-ri-	8dd\	-ri-
.	.	.	16d/JJ	.	16dd\JJ	.	.	.	.	.	.	.
*Xtremolo	*	*	*	*	*	*	*	*	*	*	*	*
8D\L	4	.	16A/LL	.	16a\LL	.	4A/	-e-	4a\	-e-	4cc\	-e
.	.	.	16cn/	.	16ccn\	.	.	.	.	.	.	.
8D\J	7	.	16B/	.	16b\	.	.	.	.	.	.	.
.	.	.	16c/JJ	.	16cc\JJ	.	.	.	.	.	.	.
=25	=25	=25	=25	=25	=25	=25	=25	=25	=25	=25	=25	=25
*tremolo	*	*	*	*	*	*	*	*	*	*	*	*
8D\L	6 4	.	16B/LL	.	16b\LL	.	4d\	-lei-	4g\	-lei-	4bn\	ley-
.	.	.	16g/	.	16gg\	.	.	.	.	.	.	.
8D\	.	.	16f#X/	.	16ff#X\	.	.	.	.	.	.	.
.	.	.	16g/JJ	.	16gg\JJ	.	.	.	.	.	.	.
8D\	.	.	16d/LL	.	16dd\LL	.	8d\	-son	8g\	-son	8b\	son
.	.	.	16d/J	.	16dd\J	.	.	.	.	.	.	.
8D\J	.	.	8B/J	.	8b\J	.	8d\	e-	8b\	e-	8gg\	e-
*Xtremolo	*	*	*	*	*	*	*	*	*	*	*	*
8D\L	5 #	.	8d/L	.	8a/L	.	8d\	-lei-	8a\	-lei-	8ff#X\	-ley-
8D\J	6 4	.	8B/J	.	8g/J	.	8d\	-son	8b\	-son	8gg\	-son
!	!	!	!	!	!	!	!LO:LB:g=original	!	!	!	!	!
=26	=26	=26	=26	=26	=26	=26	=26	=26	=26	=26	=26	=26
*tremolo	*	*	*	*	*	*	*	*	*	*	*	*
!	!	!	!	!	!LO:TX:a:t=P:problem:mixed beam	!	!	!	!	!	!	!
8G\L	9 3	.	16G/LL	.	16g/LL	.	2d\	Ky-	2b\	Ky-	2gg\	Ky-
.	.	.	16g/	.	16gg\	.	.	.	.	.	.	.
8G\	.	.	16f#X/	.	16ff#X\	.	.	.	.	.	.	.
.	.	.	16g/JJ	.	16gg\JJ	.	.	.	.	.	.	.
8G\	.	.	16a/LL	.	16aa\LL	.	.	.	.	.	.	.
.	.	.	16g/	.	16gg\	.	.	.	.	.	.	.
8G\J	.	.	16f#X/	.	16ff#X\	.	.	.	.	.	.	.
.	.	.	16g/JJ	.	16gg\JJ	.	.	.	.	.	.	.
*Xtremolo	*	*	*	*	*	*	*	*	*	*	*	*
8G\L	4	.	16d/LL	.	16dd\LL	.	4d\	-ri-	4b\	-ri-	4ffn\	-ri-
.	.	.	16e/	.	16ee\	.	.	.	.	.	.	.
8G\J	7	.	16fn/	.	16ffn\	.	.	.	.	.	.	.
.	.	.	16d/JJ	.	16dd\JJ	.	.	.	.	.	.	.
!	!	!	!LO:LB:g=original	!	!	!	!	!	!	!	!	!
=27	=27	=27	=27	=27	=27	=27	=27	=27	=27	=27	=27	=27
*tremolo	*	*	*	*	*	*	*	*	*	*	*	*
8G\L	6 4	.	16e/LL	.	16ee\LL	.	2e\	-e-	2cc\	-e-	2ee\	-e-
.	.	.	16cc/	.	16ccc\	.	.	.	.	.	.	.
8G\	.	.	16b/	.	16bb\	.	.	.	.	.	.	.
.	.	.	16cc/JJ	.	16ccc\JJ	.	.	.	.	.	.	.
8G\	.	.	16g/LL	.	16gg\LL	.	.	.	.	.	.	.
.	.	.	16g/	.	16gg\	.	.	.	.	.	.	.
8G\J	.	.	16e/	.	16ee\	.	.	.	.	.	.	.
.	.	.	16e/JJ	.	16ee\JJ	.	.	.	.	.	.	.
*Xtremolo	*	*	*	*	*	*	*	*	*	*	*	*
8G\L	5 3	.	8g/L	.	8dd\L	.	8d\L	.	8b\L	.	8dd\L	.
!	!	!LO:DY:a:t=Piano	!	!	!	!	!	!	!	!	!	!
8c\J	3	p	8e/J	.	8cc\J	.	8e\J	.	8cc\J	.	8cc\J	.
!	!	!	!	!	!LO:LB:g=original	!	!	!	!	!	!	!
=28	=28	=28	=28	=28	=28	=28	=28	=28	=28	=28	=28	=28
4c\	6 4	.	4ff\	.	4aa\	.	4f\	-lei-	4cc\	-lei-	4aa\	-ley-
4C/	5 3	.	8ee\L	.	8gg\L	.	4e\	-son	4cc\	-son	4gg\	-son
.	.	.	8ee\	.	8ccc\	.	.	.	.	.	.	.
4r	.	.	8cc\	.	8ee\	.	4r	.	4r	.	4r	.
.	.	.	8ee\J	.	8gg\J	.	.	.	.	.	.	.
!	!	!	!	!	!	!	!	!	!LO:LB:g=original	!	!	!
=29	=29	=29	=29	=29	=29	=29	=29	=29	=29	=29	=29	=29
4BB/	5 3	.	4dd\	.	4ff\	.	8d\	e-	8g\	e-	8ff\	e-
.	.	.	.	.	.	.	8d\	-lei-	8g\	-lei-	8ff\	-ley-
!	!	!	!LO:TX:a:t=P:problem:mixed beam	!	!LO:TX:a:t=P:problem:mixed beam	!	!	!	!	!	!	!
4C/	3	.	8cc\L	.	8ee\L	.	4c\	-son	4g\	-son	4ee\	-son
!	!	!	!	!LO:DY:a:t=p.	!LO:TX:a:t=P:problem:p=p. (przekreślona laska)	!LO:DY:b:t=p.	!	!	!	!	!	!
.	.	.	8e/	p	8g/	p	.	.	.	.	.	.
4r	.	.	8e/	.	8g/	.	4r	.	4r	.	4r	.
.	.	.	8e/J	.	8g/J	.	.	.	.	.	.	.
=30	=30	=30	=30	=30	=30	=30	=30	=30	=30	=30	=30	=30
!LO:TX:a:t=P:problem:klamra łukowa nad 1	!	!	!	!	!	!	!LO:TX:a:t=P:problem:klamra łukowa nad 1	!	!LO:TX:a:t=P:problem:klamra łukowa nad 1	!	!LO:TX:a:t=P:problem:klamra łukowa nad 1	!
!LO:TX:a:t=1	!	!	!	!	!	!	!LO:TX:a:t=1	!	!LO:TX:a:t=1	!	!LO:TX:a:t=1	!
2.r	.	.	4f/	.	4a/	.	2.r	.	2.r	.	2.r	.
.	.	.	8e/L	.	8g/L	.	.	.	.	.	.	.
.	.	.	8e/	.	8cc/	.	.	.	.	.	.	.
.	.	.	8c/	.	8e/	.	.	.	.	.	.	.
.	.	.	8e/J	.	8a/J	.	.	.	.	.	.	.
=31	=31	=31	=31	=31	=31	=31	=31	=31	=31	=31	=31	=31
4r	.	.	4B/ 4d	.	4G/ 4f	.	4r	.	4r	.	4r	.
!	!	!	!LO:TX:a:t=P:problem:mixed beam	!	!LO:TX:a:t=P:problem:mixed beam	!	!	!	!	!	!	!
4r	.	.	8c/L	.	8e/L	.	4r	.	4r	.	4r	.
.	.	.	8ee\J	.	8gg\J	.	.	.	.	.	.	.
!LO:TX:a:t=P:problem: 4 z kropką w basie cyfrowanym	!	!	!	!	!	!LO:DY:b:t=for.	!	!	!	!	!	!
4G\	6 4	.	16ff\LL	.	16aa\LL	f	4g\	e-	4cc\	e-	4ee\	e-
.	.	.	16ee\	.	16gg\	.	.	.	.	.	.	.
.	.	.	16dd\	.	16ff\	.	.	.	.	.	.	.
.	.	.	16cc\JJ	.	16ee\JJ	.	.	.	.	.	.	.
!	!	!	!	!	!	!	!	!	!	!	!LO:LB:g=original	!
=32	=32	=32	=32	=32	=32	=32	=32	=32	=32	=32	=32	=32
4G\	6 4	.	8cc\L	.	8ee\L	.	4g\	-lei-	4cc\	-lei-	4ee\	-lei-
.	.	.	8b\J	.	8dd\J	.	.	.	.	.	.	.
4GG/	5 3	.	4b\	.	4dd\	.	4g\	-son	4b\	-son	4dd\	-son
4r	.	.	8B/L	.	8d/L	.	4r	.	8b\	chri-	8dd\	chri-
.	.	.	8B/J	.	8d/J	.	.	.	8b\	-ste	8dd\	-ste
!LO:LB:g=original	!	!	!	!	!	!	!	!	!	!	!	!
=33	=33	=33	=33	=33	=33	=33	=33	=33	=33	=33	=33	=33
!LO:TX:a:t=P:problem:takty 33-34 ujęte w repetycję	!	!	!	!	!	!	!LO:TX:a:t=P:problem:takty 33-34 ujęte w repetycję	!	!	!	!LO:TX:a:t=P:problem:takty 33-34 ujęte w repetycję	!
8D\L	7_ #_	.	2.A/	.	2.c/	.	2.d\	chri-	2.a\	chri-	2.cc\	chri-
8E\	.	.	.	.	.	.	.	.	.	.	.	.
8F#X\	.	.	.	.	.	.	.	.	.	.	.	.
8D\	.	.	.	.	.	.	.	.	.	.	.	.
8E\	.	.	.	.	.	.	.	.	.	.	.	.
8F#\J	.	.	.	.	.	.	.	.	.	.	.	.
!	!	!	!	!	!	!	!LO:LB:g=original	!	!	!	!	!
=34	=34	=34	=34	=34	=34	=34	=34	=34	=34	=34	=34	=34
!	!	!	!LO:TX:a:t=P:problem:mixed beam	!	!	!	!	!	!	!	!	!
!	!	!	!LO:TX:a:t=P:problem:takty 34-35 ujęte w repetycję	!	!LO:TX:a:t=P:problem:mixed beam	!	!	!	!	!	!	!
8G\	3	.	16G/LL	.	16B/LL	.	8d\	-ste	8g\	-ste	8b\	-ste
.	.	.	16ee\	.	16gg\	.	.	.	.	.	.	.
8r	.	.	16dd\	.	16ff#X\	.	8r	.	8r	.	8r	.
.	.	.	16cc\JJ	.	16ee\JJ	.	.	.	.	.	.	.
4r	.	.	16b\LL	.	16dd#X\LL	.	4r	.	4r	.	4r	.
.	.	.	16cc\	.	16ee\	.	.	.	.	.	.	.
.	.	.	16b\	.	16dd#\	.	.	.	.	.	.	.
.	.	.	16cc\JJ	.	16ee\JJ	.	.	.	.	.	.	.
4r	.	.	16g/LL	.	16b\LL	.	4r	.	4r	.	4r	.
.	.	.	16b/	.	16ddn\	.	.	.	.	.	.	.
.	.	.	16a/	.	16cc\	.	.	.	.	.	.	.
.	.	.	16g/JJ	.	16b\JJ	.	.	.	.	.	.	.
=35	=35	=35	=35	=35	=35	=35	=35	=35	=35	=35	=35	=35
!LO:TX:a:t=P:problem:takty 35-36 zapisane powtórką	!	!	!	!	!LO:TX:a:t=P:problem:mixed beam	!	!LO:TX:a:t=P:problem:takty 35-36 zapisane powtórką	!	!	!	!LO:TX:a:t=P:problem:takty 35-36 zapisane powtórką	!
8D\Lyy	7_ #_	.	8a/L	.	8cc\L	.	2.d\yy	chri-	2.a\	chri-	2.cc\yy	chri-
8E\yy	.	.	8A/J	.	8c/J	.	.	.	.	.	.	.
8F#X\yy	.	.	2A/	.	2c/	.	.	.	.	.	.	.
8D\yy	.	.	.	.	.	.	.	.	.	.	.	.
8E\yy	.	.	.	.	.	.	.	.	.	.	.	.
8F#\Jyy	.	.	.	.	.	.	.	.	.	.	.	.
=36	=36	=36	=36	=36	=36	=36	=36	=36	=36	=36	=36	=36
!	!	!	!LO:TX:a:t=P:problem:mixed beam	!	!	!	!	!	!	!	!	!
!	!	!	!LO:TX:a:t=P:problem:takty 36-37 zapisane powtórką	!	!LO:TX:a:t=P:problem:mixed beam	!	!	!	!	!	!	!
8G\yy	3	.	16G/LLyy	.	16B/LL	.	8d\yy	-ste	8g\	-ste	8b\yy	-ste
.	.	.	16ee/yy	.	16gg\	.	.	.	.	.	.	.
8ryy	.	.	16dd/yy	.	16ff#X\	.	8ryy	.	8r	.	8ryy	.
.	.	.	16cc/JJyy	.	16ee\JJ	.	.	.	.	.	.	.
4ryy	.	.	16b\LLyy	.	16dd#X\LL	.	4ryy	.	4r	.	4ryy	.
.	.	.	16cc\yy	.	16ee\	.	.	.	.	.	.	.
.	.	.	16b\yy	.	16dd#\	.	.	.	.	.	.	.
.	.	.	16cc\JJyy	.	16ee\JJ	.	.	.	.	.	.	.
4ryy	.	.	16g/LLyy	.	8b\L	.	4ryy	.	4r	.	4ryy	.
.	.	.	16b/yy	.	.	.	.	.	.	.	.	.
.	.	.	16a/yy	.	8ddn\J	.	.	.	.	.	.	.
.	.	.	16g/JJyy	.	.	.	.	.	.	.	.	.
!	!	!	!	!	!LO:LB:g=original	!	!	!	!	!	!	!
=37	=37	=37	=37	=37	=37	=37	=37	=37	=37	=37	=37	=37
!	!	!	!	!	!LO:TX:a:t=P:problem:mixed beam	!	!	!	!	!	!	!
8D\L	7_ #_	.	8a/Lyy	.	8cc\L	.	2.d\	chri-	2.a\	chri-	2.cc\	chri-
8E\	.	.	8A/Jyy	.	8c/J	.	.	.	.	.	.	.
8F#X\	.	.	2A/yy	.	2c/	.	.	.	.	.	.	.
8D\	.	.	.	.	.	.	.	.	.	.	.	.
8E\	.	.	.	.	.	.	.	.	.	.	.	.
8F#\J	x	.	.	.	.	.	.	.	.	.	.	.
!	!	!	!LO:LB:g=original	!	!	!	!	!	!LO:LB:g=original	!	!	!
=38	=38	=38	=38	=38	=38	=38	=38	=38	=38	=38	=38	=38
8G\L	.	.	4G/	.	4B/	.	4d\	-ste-	4g\	-ste	4b\	-ste
8G\	.	.	.	.	.	.	.	.	.	.	.	.
8B\	6_	.	4B/	.	4d/	.	2d\	.	4b\	e-	4dd\	e-
8B\	.	.	.	.	.	.	.	.	.	.	.	.
8c\	6	.	8A/L	.	8c/L	.	.	.	8a\L	.	8cc\L	.
8c#X\J	5	.	8G/J	.	8B/J	.	.	.	8g\J	.	8b\J	.
=39	=39	=39	=39	=39	=39	=39	=39	=39	=39	=39	=39	=39
4d\	6 4	.	8d/L	.	4B/	.	4d\	-lei-	4g\	-lei-	4b\	-lei-
.	.	.	8d/J	.	.	.	.	.	.	.	.	.
!	!	!	!	!	!LO:SIC:s=4A	!	!	!	!	!	!	!
4D\	5 #	.	8d/L	.	4G/	.	4d\	-son	4f#X\	-son	4a\	-son
.	.	.	8d/J	.	.	.	.	.	.	.	.	.
8D\L	7_	.	8a/L	.	8cc\L	.	4r	.	4r	.	4r	.
8D\J	.	.	8a/J	.	8cc\J	.	.	.	.	.	.	.
=40	=40	=40	=40	=40	=40	=40	=40	=40	=40	=40	=40	=40
4D\	x	.	16a/LL	.	16cc/LL	.	4r	.	4r	.	4r	.
.	.	.	16g/	.	16b/	.	.	.	.	.	.	.
.	.	.	16f#X/	.	16a/	.	.	.	.	.	.	.
.	.	.	16e/JJ	.	16g/JJ	.	.	.	.	.	.	.
!	!	!	!LO:TX:a:t=P:problem:mixed beam	!	!LO:TX:a:t=P:problem:mixed beam	!	!	!	!	!	!	!
4r	.	.	8d/L	.	8f#X/L	.	4r	.	4r	.	4r	.
.	.	.	8cc\	.	8ee\	.	.	.	.	.	.	.
8r	.	.	8b\	.	8dd\	.	8r	.	8r	.	8r	.
8C/	6	.	8a\J	.	8cc\J	.	8d\	e-	8a\	e-	8cc\	e-
=41	=41	=41	=41	=41	=41	=41	=41	=41	=41	=41	=41	=41
4D\	6 4	.	4g/	.	4b/	.	4d\	-lei-	4g\	-lei-	4b\	-lei-
4DD/	5 #	.	4f#X/	.	4a/	.	4d\	-son	4f#X\	-son	4a\	-son
8D\L	7_	.	8a/L	.	8cc\L	.	4r	.	4r	.	4r	.
8D\J	.	.	8a/J	.	8cc\J	.	.	.	.	.	.	.
=42	=42	=42	=42	=42	=42	=42	=42	=42	=42	=42	=42	=42
4D\	x	.	16a/LL	.	16cc\LL	.	4r	.	4r	.	4r	.
.	.	.	16g/	.	16b\	.	.	.	.	.	.	.
.	.	.	16f#X/	.	16a\	.	.	.	.	.	.	.
.	.	.	16e/JJ	.	16g\JJ	.	.	.	.	.	.	.
!	!	!	!LO:TX:a:t=P:problem:mixed beam	!	!LO:TX:a:t=P:problem:mixed beam	!	!	!	!	!	!	!
4r	.	.	8d/L	.	8f#X/L	.	4r	.	4r	.	4r	.
.	.	.	8cc\	.	8ee\	.	.	.	.	.	.	.
8r	.	.	8b\	.	8dd\	.	8r	.	8r	.	8r	.
8c\	6	.	8a\J	.	8cc\J	.	8d\	e-	8a\	e-	8cc\	e-
!	!	!	!	!	!	!	!	!	!	!	!LO:LB:g=original	!
=43	=43	=43	=43	=43	=43	=43	=43	=43	=43	=43	=43	=43
*tremolo	*	*	*	*	*	*	*	*	*	*	*	*
8d\L	6 4	.	8r	.	8r	.	2d\	-lei-	2g\	-lei-	2b\	-lei-
8d\	.	.	8g/L	.	8b/L	.	.	.	.	.	.	.
8d\	.	.	8g/	.	8b/	.	.	.	.	.	.	.
8d\J	.	.	8g/J	.	8b/J	.	.	.	.	.	.	.
*Xtremolo	*	*	*	*	*	*	*	*	*	*	*	*
8D\L	5 #	.	8f#X/L	.	8a/L	.	4d\	.	4a\	.	4ff#X\	.
8D\J	.	.	8f#/J	.	8a/J	.	.	.	.	.	.	.
!LO:LB:g=original	!	!	!	!	!	!	!LO:LB:g=original	!	!	!	!	!
=44	=44	=44	=44	=44	=44	=44	=44	=44	=44	=44	=44	=44
!	!	!	!	!	!LO:TX:a:t=P:problem:mixed beam	!	!	!	!	!	!	!
!	!	!	!	!	!LO:TX:a:t=Solo	!	!	!	!	!	!	!
4G`\	.	.	8g/L	.	16g/LL	.	4d\	-son	8b\	-son	4gg\	-son
.	.	.	.	.	16gg\	.	.	.	.	.	.	.
.	.	.	8b/	.	16ff#X\	.	.	.	8r	.	.	.
.	.	.	.	.	16gg\JJ	.	.	.	.	.	.	.
!LO:TX:a:t=Solo	!	!	!	!	!	!	!	!	!	!	!	!
8G`\L	.	.	8b/	.	16bb\LL	.	4r	.	4r	.	4r	.
.	.	.	.	.	16gg\	.	.	.	.	.	.	.
8G`\	.	.	8b/J	.	16ddd\	.	.	.	.	.	.	.
.	.	.	.	.	16bb\JJ	.	.	.	.	.	.	.
8F#X`\	.	.	8cc\L	.	16aa\LL	.	4r	.	4r	.	4r	.
.	.	.	.	.	16gg\	.	.	.	.	.	.	.
8G`\J	.	.	8cc\J	.	16ff#X\	.	.	.	.	.	.	.
.	.	.	.	.	16gg\JJ	.	.	.	.	.	.	.
!	!	!	!	!	!LO:LB:g=original	!	!	!	!LO:LB:g=original	!	!	!
=45	=45	=45	=45	=45	=45	=45	=45	=45	=45	=45	=45	=45
!	!	!	!	!	!	!	!LO:TX:a:t=4	!	!LO:TX:a:t=4.	!	!LO:TX:a:t=9.	!
!	!	!	!	!	!	!	!LO:N:vis=00	!	!LO:N:vis=00	!	!LO:N:vis=00	!
4A`\	.	.	4cc\	.	16dd\LL	.	0.r	.	0.r	.	0.r	.
.	.	.	.	.	16aa\	.	.	.	.	.	.	.
.	.	.	.	.	16gg#X\	.	.	.	.	.	.	.
.	.	.	.	.	16aa\JJ	.	.	.	.	.	.	.
8A`\L	.	.	8cc\L	.	16bb\LL	.	.	.	.	.	.	.
.	.	.	.	.	16aa\	.	.	.	.	.	.	.
8A`\	.	.	8cc\	.	16eee\	.	.	.	.	.	.	.
.	.	.	.	.	16ccc\JJ	.	.	.	.	.	.	.
8G#X`\	.	.	8b\	.	16bb\LL	.	.	.	.	.	.	.
.	.	.	.	.	16aa\	.	.	.	.	.	.	.
8A`\J	.	.	8cc\J	.	16gg#X\	.	.	.	.	.	.	.
.	.	.	.	.	16aa\JJ	.	.	.	.	.	.	.
=46	=46	=46	=46	=46	=46	=46	=46	=46	=46	=46	=46	=46
4B`\	.	.	4dd\	.	16gg\LL	.	.	.	.	.	.	.
.	.	.	.	.	16bb\	.	.	.	.	.	.	.
.	.	.	.	.	16aa\	.	.	.	.	.	.	.
.	.	.	.	.	16bb\JJ	.	.	.	.	.	.	.
8B`\L	.	.	8dd\L	.	16ddd\LL	.	.	.	.	.	.	.
.	.	.	.	.	16bb\	.	.	.	.	.	.	.
8B`\	.	.	8dd\	.	16ggg\	.	.	.	.	.	.	.
.	.	.	.	.	16ddd\JJ	.	.	.	.	.	.	.
8A`\	.	.	8cc\	.	16ddd\LL	.	.	.	.	.	.	.
.	.	.	.	.	16ccc\	.	.	.	.	.	.	.
8Gn`\J	.	.	8b\J	.	16ccc\	.	.	.	.	.	.	.
.	.	.	.	.	16bb\JJ	.	.	.	.	.	.	.
!	!	!	!LO:LB:g=original	!	!	!	!	!	!	!	!	!
=47	=47	=47	=47	=47	=47	=47	=47	=47	=47	=47	=47	=47
*tremolo	*	*	*	*	*	*	*	*	*	*	*	*
8A\L	.	f	8dd\L	.	4bb\	.	.	.	.	.	.	.
8A\	.	.	8dd\J	.	.	.	.	.	.	.	.	.
*	*	*	*tremolo	*	*	*	*	*	*	*	*	*
8A\	.	.	8cc\L	.	2aa\	.	.	.	.	.	.	.
8A\	.	.	8cc\	.	.	.	.	.	.	.	.	.
8A\	.	.	8cc\	.	.	.	.	.	.	.	.	.
8A\J	.	.	8cc\J	.	.	.	.	.	.	.	.	.
*Xtremolo	*	*	*Xtremolo	*	*	*	*	*	*	*	*	*
=48	=48	=48	=48	=48	=48	=48	=48	=48	=48	=48	=48	=48
8G\L	.	.	8b\L	.	8gg\L	.	.	.	.	.	.	.
8D\	.	.	8b\J	.	8dd\J	.	.	.	.	.	.	.
8BB\	4	.	16b/LL	.	(16dd\LL	.	.	.	.	.	.	.
.	.	.	16g/	.	16b\)	.	.	.	.	.	.	.
8D\J	7	.	16f#X/	.	16g`\	.	.	.	.	.	.	.
.	.	.	16a/JJ	.	16cc`\JJ	.	.	.	.	.	.	.
4GG/	3	.	4g/	.	4b\	.	.	.	.	.	.	.
=49	=49	=49	=49	=49	=49	=49	=49	=49	=49	=49	=49	=49
!	!	!	!LO:TX:a:t=P:problem:w p laska przekreślona	!LO:DY:b:t=p.	!	!LO:DY:t=Piano	!LO:TX:a:t=Solo.	!	!	!	!LO:N:vis=00	!
8r	.	.	2b/	p	2dd\	p	2d\	chri-	2b\	Chri-	0.r	.
8G\L	5_ 3_	.	.	.	.	.	.	.	.	.	.	.
8A\	.	.	.	.	.	.	.	.	.	.	.	.
8B\	.	.	.	.	.	.	.	.	.	.	.	.
8A\	.	.	4g/	.	4b\	.	4B\	-ste	4g\	-ste	.	.
8G\J	.	.	.	.	.	.	.	.	.	.	.	.
=50	=50	=50	=50	=50	=50	=50	=50	=50	=50	=50	=50	=50
8r	x	.	8g/L	.	(8b\L	.	8B\L	e-	8g\L	e-	.	.
8F#X\L	5_	.	(8a/J	.	8cc\J	.	8c\J	.	8a\J	.	.	.
8F#\	.	.	4.a/)	.	4.cc\	.	4.c\	.	4.a\	.	.	.
8F#\	.	.	.	.	.	.	.	.	.	.	.	.
8F#\	.	.	.	.	.	.	.	.	.	.	.	.
8G\J	3	.	8g/	.	8b\)	.	8B\	.	8g\	.	.	.
=51	=51	=51	=51	=51	=51	=51	=51	=51	=51	=51	=51	=51
8r	.	.	(8cc\L	.	(8ee\L	.	8e\L	.	8cc\L	.	.	.
8G\	5_ 3_	.	8b\J	.	8dd\J)	.	8d\J	.	8b\J	.	.	.
4G\	.	.	4.b/)	.	(4.dd\	.	4.d\	.	4.b\	.	.	.
4GG/	.	.	.	.	.	.	.	.	.	.	.	.
.	.	.	8g/	.	8b\)	.	8B\	.	8g\	.	.	.
=52	=52	=52	=52	=52	=52	=52	=52	=52	=52	=52	=52	=52
8r	x	.	8b/L	.	8dd\L	.	8d\L	.	8b\L	.	.	.
8D\	7_	.	(8a/J	.	8cc\J	.	8c\J	.	8a\J	.	.	.
!	!	!	!	!	!	!	!LO:SIC:s=4.c:v	!	!	!	!	!
4D/	.	.	4.a/)	.	4.cc\	.	4c\	.	4.a\	.	.	.
4DD/	.	.	.	.	.	.	8ryy	.	.	.	.	.
.	.	.	8f#X/	.	8a/	.	8A\	.	8f#X\	.	.	.
!	!	!	!	!	!LO:LB:g=original	!	!	!	!	!	!	!
=53	=53	=53	=53	=53	=53	=53	=53	=53	=53	=53	=53	=53
4DD/	5 3	.	8a/L	.	8cc\L	.	8c\L	-lei-	8a\L	-lei-	2.r	.
.	.	.	8g/J	.	8b\J	.	8B\J	.	8g\J	.	.	.
4GG/	6 4	.	4g/	.	4b\	.	4B\	-son	4g\	-son	.	.
4r	3	.	4r	.	4r	.	4r	.	4r	.	.	.
!LO:LB:g=original	!	!	!	!	!	!	!	!	!	!	!	!
=54	=54	=54	=54	=54	=54	=54	=54	=54	=54	=54	=54	=54
*tremolo	*	*	*	*	*	*	*	*	*	*	*	*
!	!	!	!	!	!LO:TX:a:t=P:problem:mixed beam	!	!	!	!	!	!	!
!	!	!LO:DY:b:t=for	!	!LO:DY:a:t=for.	!LO:TX:a:t=Tutti.	!LO:DY:b:t=for.	!LO:TX:a:t=Tutti=	!	!	!	!	!
8G\L	5	f	16G/LL	f	16g/LL	f	2d\	Ky-	2b\	Ky-	2gg\	Ky-
.	.	.	16g/	.	16gg\	.	.	.	.	.	.	.
8G\	.	.	16f#X/	.	16ff#X\	.	.	.	.	.	.	.
.	.	.	16g/JJ	.	16gg\JJ	.	.	.	.	.	.	.
8G\	.	.	16a/LL	.	16aa\LL	.	.	.	.	.	.	.
.	.	.	16g/	.	16gg\	.	.	.	.	.	.	.
8G\J	.	.	16f#X/	.	16ff#X\	.	.	.	.	.	.	.
.	.	.	16g/JJ	.	16gg\JJ	.	.	.	.	.	.	.
*Xtremolo	*	*	*	*	*	*	*	*	*	*	*	*
8G\L	4	.	16d/LL	.	16dd\LL	.	4d\	-ri-	4b\	-ri-	4ffn\	-ri-
.	.	.	16e/	.	16ee\	.	.	.	.	.	.	.
8G\J	7	.	16fn/	.	16ffn\	.	.	.	.	.	.	.
.	.	.	16d/JJ	.	16dd\JJ	.	.	.	.	.	.	.
!	!	!	!LO:LB:g=original	!	!	!	!LO:LB:g=original	!	!	!	!	!
=55	=55	=55	=55	=55	=55	=55	=55	=55	=55	=55	=55	=55
*tremolo	*	*	*	*	*	*	*	*	*	*	*	*
8G\L	6 4	.	16e/LL	.	16ee\LL	.	2e\	-e-	2cc\	-e-	2ee\	-e-
.	.	.	16cc/	.	16ccc\	.	.	.	.	.	.	.
8G\	.	.	16b/	.	16bb\	.	.	.	.	.	.	.
.	.	.	16cc/JJ	.	16ccc\JJ	.	.	.	.	.	.	.
8G\	.	.	8g/L	.	16gg\LL	.	.	.	.	.	.	.
.	.	.	.	.	16gg\	.	.	.	.	.	.	.
8G\J	.	.	8e/	.	16ee\	.	.	.	.	.	.	.
.	.	.	.	.	16ee\JJ	.	.	.	.	.	.	.
*Xtremolo	*	*	*	*	*	*	*	*	*	*	*	*
8G\L	5 3	.	8g/	.	8dd\L	.	8d\L	.	8b\L	.	8dd\L	.
8G\J	6 4	.	8e/J	.	8cc\J	.	8e\J	.	8cc\J	.	8cc\J	.
!	!	!	!	!	!	!	!	!	!LO:LB:g=original	!	!	!
=56	=56	=56	=56	=56	=56	=56	=56	=56	=56	=56	=56	=56
4c\	6 4	.	4ff\	.	4aa\	.	4f\	-lei-	4cc\	-lei-	4aa\	-lei-
4C/	5 3	.	8ee\L	.	8gg\L	.	4e\	-son	4cc\	-son	4gg\	-son
.	.	.	8ee\	.	8ccc\	.	.	.	.	.	.	.
4r	.	.	8cc\	.	8ee\	.	4r	.	4r	.	4r	.
.	.	.	8ee\J	.	8gg\J	.	.	.	.	.	.	.
=57	=57	=57	=57	=57	=57	=57	=57	=57	=57	=57	=57	=57
4B\	5	.	4dd\	.	4ff\	.	8d\	e-	8g\	e-	8ff\	e-
.	.	.	.	.	.	.	8d\	-lei-	8g\	-lei-	8ff\	-lei-
!	!	!	!LO:TX:a:t=P:problem:mixed beam	!	!LO:TX:a:t=P:problem:mixed beam	!	!	!	!	!	!	!
4c\	3	.	8cc\L	.	8ee\L	.	4c\	-son	4g\	-son	4ee\	-son
!	!	!	!LO:TX:a:t=P:problem:w p laska przekreślona	!LO:DY:b:t=p.	!	!LO:DY:b:t=pia	!	!	!	!	!	!
.	.	.	8e/	p	8g/	p	.	.	.	.	.	.
4r	.	.	8e/	.	8g/	.	4r	.	4r	.	4r	.
.	.	.	8e/J	.	8g/J	.	.	.	.	.	.	.
=58	=58	=58	=58	=58	=58	=58	=58	=58	=58	=58	=58	=58
!	!	!	!	!	!	!	!LO:TX:a:t=P:problem:klamra łukowa nad 1	!	!LO:TX:a:t=P:problem:klamra łukowa nad 1	!	!LO:TX:a:t=P:problem:klamra łukowa nad 1	!
!	!	!	!	!	!	!	!LO:TX:a:t=1	!	!LO:TX:a:t=1	!	!LO:TX:a:t=1	!
4c\	6 4	.	4f/	.	4a/	.	2.r	.	2.r	.	2.r	.
4C/	5 3	.	8e/L	.	8g/L	.	.	.	.	.	.	.
.	.	.	8e/	.	8cc/J	.	.	.	.	.	.	.
4r	.	.	8c/	.	8e/L	.	.	.	.	.	.	.
.	.	.	8e/J	.	8g/J	.	.	.	.	.	.	.
=59	=59	=59	=59	=59	=59	=59	=59	=59	=59	=59	=59	=59
!	!	!	!	!	!	!	!	!	!	!	!LO:TX:a:t=P:problem:takty 59-60 ujęte w repetycję	!
4BB/	5	.	4B/ 4d	.	4G/ 4f	.	4r	.	4r	.	4r	.
4C/	3	.	8c/L	.	8e/L	.	4r	.	4r	.	4r	.
.	.	.	8e/J	.	8g/J	.	.	.	.	.	.	.
!	!	!	!	!LO:DY:a:t=for.	!	!	!	!	!	!	!	!
8r	.	.	16f/LL	f	16a/LL	.	8r	.	8r	.	8r	.
.	.	.	(16e/	.	16g/	.	.	.	.	.	.	.
8G\	6 4	.	16d/	.	16f/	.	8d\	e-	8b\	e-	8ff\	e-
.	.	.	16c/JJ)	.	16e/JJ	.	.	.	.	.	.	.
=60	=60	=60	=60	=60	=60	=60	=60	=60	=60	=60	=60	=60
4G\	6 4	.	8c/L	.	8e/L	.	4g\	-lei-	4cc\	-lei-	4ff\	-lei-
.	.	.	8B/J	.	8d/J	.	.	.	.	.	.	.
!	!	!	!	!	!	!	!	!	!	!	!LO:SIC:s=4dd:v	!
4GG/	5 3	.	4B/	.	4d/	.	4g\	-son	4b\	-son	4ee\	-son
4r	.	.	8dd\L	.	8ff\L	.	4r	.	4r	.	4r	.
.	.	.	8dd\J	.	8ff\J	.	.	.	.	.	.	.
!	!	!	!	!	!LO:LB:g=original	!	!	!	!	!	!	!
=61	=61	=61	=61	=61	=61	=61	=61	=61	=61	=61	=61	=61
!	!	!	!	!	!	!	!	!	!	!	!LO:TX:a:t=P:problem:takty 61-62 zapisane powtórką	!
4r	.	.	16dd\LL	.	16ff\LL	.	4r	.	4r	.	4ryy	.
.	.	.	16cc\	.	16ee\	.	.	.	.	.	.	.
.	.	.	16b\	.	16dd\	.	.	.	.	.	.	.
.	.	.	16a\JJ	.	16cc\JJ	.	.	.	.	.	.	.
!	!	!	!LO:TX:a:t=P:problem:mixed beam	!	!	!	!	!	!	!	!	!
4r	.	.	8g/L	.	8b\L	.	4r	.	4r	.	4ryy	.
.	.	.	8ffn\	.	8aa\	.	.	.	.	.	.	.
8r	.	.	8ee\	.	8gg\	.	8r	.	8r	.	8ryy	.
8G\	7	.	8dd\J	.	8ff\J	.	8d\	e-	8b\	e-	8ff\yy	e-
!	!	!	!	!	!	!	!LO:LB:g=original	!	!	!	!	!
=62	=62	=62	=62	=62	=62	=62	=62	=62	=62	=62	=62	=62
4BB/	5	.	4dd\	.	4ff\	.	4d\	-lei-	4b\	-lei-	4ff\yy	-lei-
4C/	3	.	4cc\	.	4ee\	.	4e\	-son	4cc\	-son	4ee\yy	-son
4r	.	.	8d/L	.	8f/L	.	4r	.	4r	.	4ryy	.
.	.	.	8d/J	.	8f/J	.	.	.	.	.	.	.
!	!	!	!LO:LB:g=original	!	!	!	!	!	!	!	!	!
=63	=63	=63	=63	=63	=63	=63	=63	=63	=63	=63	=63	=63
4r	.	.	16d/LL	.	16f/LL	.	4r	.	4r	.	4r	.
.	.	.	16c/	.	16e/	.	.	.	.	.	.	.
.	.	.	16B/	.	16d/	.	.	.	.	.	.	.
.	.	.	16A/JJ	.	16c/JJ	.	.	.	.	.	.	.
4r	.	.	8G/L	.	8B/L	.	4r	.	4r	.	4r	.
.	.	.	8f/	.	8a/	.	.	.	.	.	.	.
8r	.	.	8e/	.	8g/	.	8r	.	8r	.	8r	.
8G\	7	.	8d/J	.	8f/J	.	8d\	e-	8b\	e-	8ff\	e-
!	!	!	!	!	!	!	!	!	!LO:LB:g=original	!	!LO:LB:g=original	!
=64	=64	=64	=64	=64	=64	=64	=64	=64	=64	=64	=64	=64
4BB/	5	.	4B/ 4d	.	4G/ 4f	.	4d\	-lei-	4b\	-lei-	4ff\	-lei-
4C/	3	.	4c/	.	4G/ 4e	.	4c\	-son	4cc\	-son	4ee\	-son
!LO:LB:g=original	!	!	!	!	!	!	!	!	!	!	!	!
8C/L	.	.	8e/L	.	8g/L	.	8c\	Ky-	8g\	Ky-	8ee\	Ky-
8C/J	3	.	8e/J	.	8g/J	.	8c\	-ri-	8e\	-ri-	8cc\	-ri-
=65	=65	=65	=65	=65	=65	=65	=65	=65	=65	=65	=65	=65
*tremolo	*	*	*	*	*	*	*	*	*	*	*	*
8C/L	6 4	.	2f/	.	2a/	.	2c\	-e-	2f\	-e-	2a\	-e-
8C/	.	.	.	.	.	.	.	.	.	.	.	.
8C/	.	.	.	.	.	.	.	.	.	.	.	.
8C/J	.	.	.	.	.	.	.	.	.	.	.	.
*Xtremolo	*	*	*	*	*	*	*	*	*	*	*	*
8C/L	5_ 3_	.	4e/	.	4g/	.	4c\	.	4e\	.	4g\	.
8C/J	.	.	.	.	.	.	.	.	.	.	.	.
=66	=66	=66	=66	=66	=66	=66	=66	=66	=66	=66	=66	=66
!	!	!	!	!	!	!LO:DY:b:t=p.	!	!	!	!	!	!
8G\L	7	.	2.B/ 2.d	.	2.G/ 2.f	p	2G/	-lei-	2d\	-lei-	2f/	-lei-
(8d\	.	.	.	.	.	.	.	.	.	.	.	.
8c\	.	.	.	.	.	.	.	.	.	.	.	.
8B\	.	.	.	.	.	.	.	.	.	.	.	.
8G\	.	.	.	.	.	.	4d\	.	4b\	.	4ff\	.
8B\J	.	.	.	.	.	.	.	.	.	.	.	.
=67	=67	=67	=67	=67	=67	=67	=67	=67	=67	=67	=67	=67
4c\)	.	.	4c/	.	4G/ 4e	.	4c\	-son	4cc\	-son	4ee\	-son
4C/	.	.	4c/	.	4G/ 4e	.	4c\	e-	4g\	Ky-	4ee\	e-
4C/	.	.	4c/	.	4G/ 4e	.	4c\	-lei-	4g\	-ri-	4ee\	-lei-
=68	=68	=68	=68	=68	=68	=68	=68	=68	=68	=68	=68	=68
4C/	.	.	4c/	.	4G/ 4e	.	4c\	-son	4g\	-e	4ee\	-son
4r	.	.	4r	.	4r	.	4r	.	4r	.	4r	.
4r	.	.	4r	.	4r	.	4r	.	4r	.	4r	.
==	==	==	==	==	==	==	==	==	==	==	==	==
*-	*-	*-	*-	*-	*-	*-	*-	*-	*-	*-	*-	*-
!!!system-decoration: [(g1)][(g2)][(g3)]
!!!ENC:Anna Matuszewska
!!!END:2020-11-10
!!!ENC: Kamil Watkowski
!!!END: 2020-05-23
